public/favicon.svg

<?xml version="1.0" encoding="UTF-8"?>
<svg viewBox="0 0 399 399" version="1.1" xmlns="http://www.w3.org/2000/svg" xmlns:xlink="http://www.w3.org/1999/xlink">
    <g id="Group" transform="translate(86.000000, 7.000000)" fill-rule="nonzero">
        <path d="M23.0040442,111.011844 C18.0040442,148.011844 21.0040442,203.011844 21.0040442,253.011844 C21.0040442,280.011844 20.0040442,288.011844 29.0040442,309.011844 C44.0040442,343.011844 62.0040442,358.011844 90.0040442,375.011844 C111.004044,388.011844 135.004044,388.011844 156.004044,374.011844 C167.004044,366.011844 199.004044,340.011844 211.004044,316.011844 C219.308518,298.889362 223.421687,280.037333 223.004044,261.011844 C223.004044,251.011844 226.004044,176.011844 222.004044,150.011844 C218.004044,124.011844 205.004044,68.0118438 179.004044,54.0118438 C153.004044,40.0118438 47.0040442,15.0118438 23.0040442,111.011844 Z" id="Path" stroke="#000000" stroke-width="8" fill="#FFFFFF"></path>
        <path d="M224.004044,198.011844 L220.004044,159.011844 C218.004044,149.011844 212.004044,141.011844 211.004044,134.011844 C210.004044,127.011844 209.004044,109.011844 203.004044,100.011844 C197.004044,91.0118438 189.004044,89.0118438 188.004044,89.0118438 L182.004044,89.0118438 C181.004044,89.0118438 170.004044,87.0118438 160.004044,88.0118438 L141.004044,91.0118438 C139.708722,90.5415967 138.368268,90.2064831 137.004044,90.0118438 L135.004044,90.0118438 C135.004044,91.0118438 134.004044,95.0118438 133.004044,94.0118438 L132.004044,93.0118438 C131.004044,92.0118438 130.004044,91.0118438 131.004044,93.0118438 C132.004044,95.0118438 134.004044,95.0118438 131.004044,95.0118438 L122.004044,94.0118438 C123.004044,95.0118438 125.004044,97.0118438 123.004044,97.0118438 C121.004044,97.0118438 119.004044,94.0118438 119.004044,96.0118438 L120.004044,99.0118438 C103.004044,76.0118438 96.0040442,114.011844 75.0040442,93.0118438 C91.0040442,104.011844 93.0040442,93.0118438 105.004044,88.0118438 C105.004044,88.0118438 93.0040442,93.0118438 85.0040442,90.0118438 C85.0040442,90.0118438 72.0040442,103.011844 63.0040442,96.0118438 C63.0040442,96.0118438 72.0040442,100.011844 81.0040442,90.0118438 L77.0040442,92.0118438 L82.0040442,88.0118438 C82.0040442,88.0118438 68.0040442,98.0118438 58.0040442,95.0118438 C48.0040442,92.0118438 48.0040442,90.0118438 47.0040442,91.0118438 L45.0040442,92.0118438 L41.0040442,92.0118438 C38.0040442,98.0118438 42.0040442,110.011844 37.0040442,116.011844 C34.0040442,120.011844 34.0040442,121.011844 34.0040442,124.011844 L29.0040442,149.011844 C28.0040442,159.011844 26.0040442,162.011844 25.0040442,166.011844 L22.0040442,179.011844 C21.7380641,185.049617 21.0699164,191.062947 20.0040442,197.011844 C20.0040442,197.011844 19.0040442,167.011844 17.0040442,160.011844 C15.2286757,155.545627 14.2146213,150.813373 14.0040442,146.011844 L15.0040442,118.011844 L15.0040442,103.011844 L12.0040442,100.011844 L9.00404417,94.0118438 C9.00404417,92.0118438 12.0040442,92.0118438 9.00404417,92.0118438 L2.00404417,90.0118438 C3.33554348,90.1107451 4.67254486,90.1107451 6.00404417,90.0118438 C2.3784446,89.0777155 -0.114360524,85.7539753 0.00404417307,82.0118438 C0.837347192,83.5462276 2.29771085,84.6415003 4.00404417,85.0118438 C4.00404417,85.0118438 6.00404417,83.0118438 4.00404417,83.0118438 C2.00404417,83.0118438 2.00404417,85.0118438 4.00404417,82.0118438 C6.00404417,79.0118438 7.00404417,78.0118438 6.00404417,76.0118438 C5.00404417,74.0118438 4.00404417,75.0118438 5.00404417,74.0118438 C6.00404417,73.0118438 9.00404417,69.0118438 5.00404417,70.0118438 C1.00404417,71.0118438 4.00404417,71.0118438 5.00404417,69.0118438 C6.00404417,67.0118438 7.00404417,58.0118438 16.0040442,56.0118438 C16.0040442,56.0118438 4.00404417,56.0118438 4.00404417,65.0118438 C4.00404417,65.0118438 2.00404417,60.0118438 8.00404417,55.0118438 C14.0040442,50.0118438 12.0040442,48.0118438 11.0040442,48.0118438 C10.0040442,48.0118438 9.00404417,48.0118438 11.0040442,47.0118438 L14.0040442,43.0118438 L10.0040442,45.0118438 L13.0040442,41.0118438 C13.0040442,41.0118438 7.00404417,44.0118438 3.00404417,44.0118438 C9.31980131,42.0326542 14.8944899,38.2000557 19.0040442,33.0118438 C19.0040442,33.0118438 7.00404417,29.0118438 11.0040442,18.0118438 C11.0040442,28.0118438 21.0040442,33.0118438 30.0040442,29.0118438 L27.0040442,29.0118438 L34.0040442,26.0118438 C34.0040442,26.0118438 23.0040442,23.0118438 22.0040442,27.0118438 C22.0040442,27.0118438 21.0040442,23.0118438 29.0040442,23.0118438 L38.0040442,23.0118438 L41.0040442,22.0118438 C46.0040442,23.0118438 45.0040442,17.0118438 48.0040442,19.0118438 C50.0040442,19.0118438 49.0040442,20.0118438 51.0040442,18.0118438 C51.0040442,18.0118438 49.0040442,16.0118438 53.0040442,16.0118438 L58.0040442,16.0118438 L52.0040442,14.0118438 C64.0040442,18.0118438 55.0040442,10.0118438 58.0040442,11.0118438 L61.0040442,11.0118438 C64.0040442,12.0118438 63.0040442,11.0118438 64.0040442,14.0118438 C65.0040442,17.0118438 64.0040442,17.0118438 65.0040442,14.0118438 C66.0040442,11.0118438 68.0040442,-3.98815623 76.0040442,1.01184377 C76.0040442,1.01184377 71.0040442,-0.988156226 69.0040442,7.01184377 C69.0040442,7.01184377 67.0040442,10.0118438 69.0040442,10.0118438 C71.0040442,10.0118438 72.0040442,6.01184377 72.0040442,9.01184377 C72.0040442,12.0118438 68.0040442,12.0118438 71.0040442,11.0118438 C74.0040442,10.0118438 71.0040442,14.0118438 77.0040442,13.0118438 C83.0040442,12.0118438 96.0040442,9.01184377 104.004044,11.0118438 C112.004044,13.0118438 124.004044,12.0118438 129.004044,14.0118438 C134.004044,16.0118438 135.004044,13.0118438 137.004044,15.0118438 C139.004044,17.0118438 144.004044,18.0118438 145.004044,18.0118438 C176.004044,20.0118438 177.004044,23.0118438 199.004044,45.0118438 C200.004044,47.0118438 205.004044,51.0118438 207.004044,56.0118438 C209.004044,61.0118438 214.004044,72.0118438 213.004044,79.0118438 L213.004044,87.0118438 C214.004044,91.0118438 224.004044,102.011844 226.004044,115.011844 C229.004044,132.011844 223.004044,189.011844 224.004044,198.011844 Z" id="Path" fill="#000000"></path>
        <path d="M37.0040442,197.011844 C43.0040442,185.011844 78.0040442,188.011844 89.0040442,190.011844 C99.0040442,192.011844 106.004044,193.011844 104.004044,189.011844 C101.004044,183.011844 99.0040442,180.011844 91.0040442,178.011844 C80.0040442,176.011844 45.0040442,167.011844 38.0040442,183.011844 C35.0040442,191.011844 33.0040442,201.011844 37.0040442,197.011844 Z M212.004044,197.011844 C196.004044,177.011844 144.004044,200.011844 149.004044,188.011844 C151.004044,182.011844 153.004044,180.011844 161.004044,178.011844 L186.004044,174.011844 C198.004044,173.011844 207.004044,176.011844 210.004044,184.011844 C214.004044,192.011844 215.004044,202.011844 212.004044,197.011844 Z M82.0040442,214.011844 C84.3407337,211.192358 84.7361486,207.238209 83.0040442,204.011844 L68.0040442,204.011844 C66.0362273,207.698189 66.864574,212.254096 70.0040442,215.011844 C74.0218714,215.750101 78.1638295,215.404938 82.0040442,214.011844 L82.0040442,214.011844 Z" id="Shape" fill="#000000"></path>
        <path d="M78.0040442,209.011844 C78.0040442,212.011844 73.0040442,212.011844 73.0040442,209.011844 C73.0040442,206.011844 78.0040442,205.011844 78.0040442,209.011844 Z" id="Path" fill="#000000"></path>
        <path d="M76.0040442,208.011844 C77.5913169,207.284319 79.4167715,207.284319 81.0040442,208.011844 L79.0040442,205.011844 C77.462796,205.138129 76.0298213,205.854616 75.0040442,207.011844 C75.0040442,207.011844 76.0040442,208.011844 76.0040442,208.011844 L76.0040442,208.011844 Z" id="Path" fill="#FFFFFF" opacity="0.3"></path>
        <path d="M87.0040442,213.011844 C89.0021664,212.88928 91.0059219,212.88928 93.0040442,213.011844 C103.004044,214.011844 98.0040442,211.011844 93.0040442,208.011844 L86.0040442,204.011844 C82.0040442,201.011844 70.0040442,203.011844 65.0040442,204.011844 C62.0040442,204.011844 59.0040442,206.011844 57.0040442,207.011844 L54.0040442,210.011844 L63.0040442,213.011844 C66.0040442,214.011844 64.0040442,214.011844 62.0040442,212.011844 C60.9485566,211.432415 59.9448581,210.763283 59.0040442,210.011844 C59.0040442,209.011844 58.0040442,209.011844 60.0040442,208.011844 L67.0040442,205.011844 L79.0040442,204.011844 C82.0040442,203.011844 90.0040442,208.011844 92.0040442,210.011844 C93.0040442,211.011844 90.0040442,212.011844 89.0040442,212.011844 L87.0040442,213.011844 L87.0040442,213.011844 Z" id="Path" fill="#000000"></path>
        <path d="M50.0040442,205.011844 C54.0040442,198.011844 68.0040442,197.011844 75.0040442,197.011844 C82.0040442,196.011844 91.0040442,198.011844 94.0040442,205.011844 C88.0040442,202.011844 82.0040442,204.011844 76.0040442,205.011844 C71.0086254,205.31454 65.9994629,205.31454 61.0040442,205.011844 L50.0040442,205.011844 L50.0040442,205.011844 Z M179.004044,215.011844 C182.358257,211.856718 182.789765,206.678631 180.004044,203.011844 L167.004044,203.011844 C164.195385,206.018818 163.783669,210.547684 166.004044,214.011844 C169.004044,214.011844 175.004044,216.011844 179.004044,215.011844 L179.004044,215.011844 Z" id="Shape" fill="#000000"></path>
        <path d="M176.004044,209.011844 C176.004044,212.011844 171.004044,212.011844 171.004044,209.011844 C171.004044,206.011844 176.004044,205.011844 176.004044,209.011844 Z" id="Path" fill="#000000"></path>
        <path d="M174.004044,209.011844 C175.439124,207.951667 177.271595,207.585173 179.004044,208.011844 L177.004044,205.011844 C175.462796,205.138129 174.029821,205.854616 173.004044,207.011844 C173.004044,207.011844 174.004044,208.011844 174.004044,209.011844 L174.004044,209.011844 Z" id="Path" fill="#FFFFFF" opacity="0.3"></path>
        <path d="M162.004044,213.011844 L156.004044,213.011844 C152.004044,213.011844 149.004044,213.011844 152.004044,211.011844 L158.004044,207.011844 C165.004044,201.011844 175.004044,202.011844 183.004044,203.011844 C187.004044,204.011844 191.004044,206.011844 194.004044,209.011844 C196.004044,211.011844 198.004044,212.011844 196.004044,212.011844 L187.004044,214.011844 C183.004044,215.011844 187.004044,213.011844 190.004044,212.011844 C193.004044,211.011844 192.004044,211.011844 190.004044,210.011844 C187.004044,205.011844 174.004044,203.011844 169.004044,204.011844 C165.004044,204.011844 161.004044,207.011844 158.004044,209.011844 L157.004044,211.011844 L159.004044,212.011844 L162.004044,213.011844 Z" id="Path" fill="#000000"></path>
        <path d="M199.004044,207.011844 L193.004044,207.011844 L188.004044,206.011844 L161.004044,204.011844 C159.018129,203.676163 156.989959,203.676163 155.004044,204.011844 C157.004044,201.011844 162.004044,199.011844 166.004044,198.011844 C173.712064,196.619423 181.65206,197.309858 189.004044,200.011844 C191.963861,201.155702 194.678859,202.852575 197.004044,205.011844 C197.820565,205.509605 198.506283,206.195323 199.004044,207.011844 Z" id="Path" fill="#000000"></path>
        <path d="M201.004044,332.011844 C196.004044,332.011844 181.004044,335.011844 180.004044,328.011844 L180.004044,307.011844 C178.004044,286.011844 166.004044,285.011844 148.004044,281.011844 C142.004044,280.011844 133.004044,285.011844 126.004044,284.011844 C115.004044,284.011844 109.004044,281.011844 98.0040442,283.011844 C83.0040442,286.011844 72.0040442,287.011844 68.0040442,303.011844 L65.0040442,311.011844 C63.9766478,314.26277 63.3060345,317.615836 63.0040442,321.011844 L61.0040442,327.011844 C58.0040442,333.011844 58.0040442,335.011844 51.0040442,334.011844 C47.5659254,334.06925 44.1556131,333.387187 41.0040442,332.011844 C56.0040442,354.011844 70.0040442,361.011844 90.0040442,375.011844 C135.004044,401.011844 167.004044,371.011844 201.004044,332.011844 Z M151.004044,357.011844 L145.004044,353.011844 L138.004044,349.011844 C136.004044,347.011844 135.004044,346.011844 137.004044,345.011844 C140.004044,344.011844 140.004044,342.011844 143.004044,340.011844 C144.004044,340.011844 145.004044,339.011844 145.004044,337.011844 C145.004044,335.011844 145.004044,334.011844 141.004044,335.011844 C134.004044,338.011844 127.004044,340.011844 118.004044,339.011844 C109.004044,340.011844 101.004044,332.011844 101.004044,336.011844 C101.004044,338.011844 100.004044,337.011844 103.004044,339.011844 L105.004044,342.011844 C106.004044,343.011844 109.004044,344.011844 109.004044,346.011844 C109.004044,348.011844 111.004044,347.011844 108.004044,349.011844 L100.004044,356.011844 C97.0040442,359.011844 94.0040442,361.011844 89.0040442,358.011844 C84.0040442,355.011844 85.0040442,353.011844 83.0040442,348.011844 C80.7848837,340.849457 78.1128331,333.835324 75.0040442,327.011844 C75.0040442,321.011844 76.0040442,315.011844 79.0040442,312.011844 L82.0040442,306.011844 L84.0040442,305.011844 L90.0040442,301.011844 C91.9701499,300.499916 93.9781838,300.165244 96.0040442,300.011844 L100.004044,299.011844 L103.004044,299.011844 L111.004044,298.011844 L121.004044,300.011844 L127.004044,300.011844 C129.004044,301.011844 129.004044,298.011844 131.004044,299.011844 L136.004044,300.011844 L138.004044,300.011844 C139.004044,301.011844 139.004044,300.011844 140.004044,299.011844 L152.004044,299.011844 C152.622846,299.369109 153.385242,299.369109 154.004044,299.011844 L161.004044,299.011844 L162.004044,300.011844 C166.004044,302.011844 165.004044,299.011844 169.004044,305.011844 L171.004044,316.011844 C171.104214,319.70507 170.768564,323.397226 170.004044,327.011844 L165.004044,341.011844 C164.004044,345.011844 165.004044,349.011844 161.004044,353.011844 C157.004044,357.011844 156.004044,360.011844 151.004044,357.011844 L151.004044,357.011844 Z" id="Shape" fill="#000000" opacity="0.6"></path>
        <path d="M94.0040442,261.011844 C92.0040442,265.011844 90.0040442,281.011844 101.004044,280.011844 C110.004044,279.011844 113.004044,291.011844 123.004044,291.011844 C136.004044,293.011844 136.004044,279.011844 145.004044,281.011844 C150.004044,282.011844 159.004044,276.011844 152.004044,260.011844" id="Path" fill="#FFFFFF"></path>
        <path d="M94.0040442,261.011844 C94.0040442,265.011844 95.0040442,274.011844 99.0040442,275.011844 C99.7059994,274.754329 100.376859,274.418899 101.004044,274.011844 L103.004044,274.011844 C105.712318,273.698873 108.456141,274.041851 111.004044,275.011844 L121.004044,282.011844 C121.927546,282.541468 122.947468,282.881442 124.004044,283.011844 C126.004044,283.011844 127.004044,283.011844 129.004044,281.011844 C130.885241,279.20757 132.890116,277.536841 135.004044,276.011844 C136.545744,275.067473 138.236351,274.391231 140.004044,274.011844 C142.304723,273.45978 144.703365,273.45978 147.004044,274.011844 L147.004044,275.011844 L148.004044,275.011844 C148.394125,274.740549 148.73275,274.401925 149.004044,274.011844 C149.890308,273.177061 150.574346,272.151004 151.004044,271.011844 L152.004044,260.011844 C156.004044,265.011844 160.004044,272.011844 158.004044,278.011844 C156.004044,284.011844 151.004044,288.011844 144.004044,287.011844 L144.004044,288.011844 C138.004044,295.011844 132.004044,300.011844 122.004044,299.011844 L123.004044,299.011844 C119.455972,298.965246 115.991846,297.926009 113.004044,296.011844 C109.004044,294.011844 107.004044,290.011844 104.004044,288.011844 L102.004044,287.011844 C94.8243424,287.011844 89.0040442,281.191546 89.0040442,274.011844 C89.0040442,269.011844 91.0040442,264.011844 94.0040442,261.011844 L94.0040442,261.011844 Z M124.004044,306.011844 L113.004044,303.011844 C111.004044,303.011844 105.004044,303.011844 102.004044,305.011844 C96.7552251,306.662964 91.4123529,307.998682 86.0040442,309.011844 C83.0040442,309.011844 84.0040442,309.011844 86.0040442,311.011844 C93.0040442,316.011844 99.0040442,327.011844 108.004044,332.011844 C117.004044,336.011844 128.004044,339.011844 142.004044,330.011844 C153.004044,323.011844 157.004044,312.011844 162.004044,306.011844 C163.004044,305.011844 163.004044,305.011844 161.004044,305.011844 C156.675903,305.311848 152.332185,305.311848 148.004044,305.011844 C144.004044,305.011844 136.004044,301.011844 124.004044,306.011844 L124.004044,306.011844 Z" id="Shape" fill="#000000"></path>
        <path d="M102.004044,313.011844 C111.004044,318.011844 127.004044,319.011844 136.004044,314.011844 C138.895067,312.445697 141.90426,311.108278 145.004044,310.011844 C146.031445,309.767167 147.035318,309.432543 148.004044,309.011844 C141.004044,307.011844 131.004044,310.011844 124.004044,311.011844 C124.004044,311.011844 93.0040442,307.011844 102.004044,313.011844 L102.004044,313.011844 Z" id="Path" fill="#FFFFFF"></path>
        <path d="M156.004044,307.011844 L137.004044,308.011844 L126.004044,310.011844 L101.004044,310.011844 C95.9865076,310.654457 90.8918751,310.314815 86.0040442,309.011844 L90.0040442,311.011844 C101.004044,312.011844 108.004044,318.011844 120.004044,318.011844 C129.004044,319.011844 138.004044,315.011844 145.004044,311.011844 L156.004044,308.011844 L161.004044,306.011844 L156.004044,307.011844 Z M146.004044,309.011844 C145.339053,309.078678 144.669036,309.078678 144.004044,309.011844 L143.004044,311.011844 L139.004044,312.011844 L137.004044,313.011844 L136.004044,314.011844 C135.004044,315.011844 124.004044,318.011844 123.004044,315.011844 L122.004044,316.011844 C120.004044,317.011844 110.004044,316.011844 109.004044,315.011844 C108.045219,314.720997 107.294891,313.970669 107.004044,313.011844 L105.004044,313.011844 L101.004044,311.011844 C106.004044,309.011844 116.004044,311.011844 123.004044,311.011844 C133.004044,311.011844 138.004044,308.011844 145.004044,308.011844 C146.004044,308.011844 147.004044,308.011844 146.004044,309.011844 Z" id="Shape" fill="#000000"></path>
    </g>
</svg>

<svg xmlns="http://www.w3.org/2000/svg" viewBox="0 0 228.3 388.5" height="45" width="27" class="text-black">
    <path d="M23 111c-5 37-2 92-2 142 0 27-1 35 8 56 15 34 33 49 61 66 21 13 45 13 66-1 11-8 43-34 55-58a120 120 0 0 0 12-55c0-10 3-85-1-111s-17-82-43-96S47 15 23 111Z" fill="#fff" stroke="currentColor" stroke-miterlimit="10" stroke-width="8"></path>
    <path d="m224 198-4-39c-2-10-8-18-9-25s-2-25-8-34-14-11-15-11h-6c-1 0-12-2-22-1l-19 3a20 20 0 0 0-4-1h-2c0 1-1 5-2 4l-1-1c-1-1-2-2-1 0s3 2 0 2l-9-1c1 1 3 3 1 3s-4-3-4-1l1 3c-17-23-24 15-45-6 16 11 18 0 30-5 0 0-12 5-20 2 0 0-13 13-22 6 0 0 9 4 18-6l-4 2 5-4s-14 10-24 7-10-5-11-4l-2 1h-4c-3 6 1 18-4 24-3 4-3 5-3 8l-5 25c-1 10-3 13-4 17l-3 13a136 136 0 0 1-2 18s-1-30-3-37a43 43 0 0 1-3-14l1-28v-15l-3-3-3-6c0-2 3-2 0-2l-7-2a27 27 0 0 0 4 0 8 8 0 0 1-6-8 6 6 0 0 0 4 3s2-2 0-2-2 2 0-1 3-4 2-6-2-1-1-2 4-5 0-4-1 1 0-1 2-11 11-13c0 0-12 0-12 9 0 0-2-5 4-10s4-7 3-7-2 0 0-1l3-4-4 2 3-4s-6 3-10 3a33 33 0 0 0 16-11s-12-4-8-15c0 10 10 15 19 11h-3l7-3s-11-3-12 1c0 0-1-4 7-4h9l3-1c5 1 4-5 7-3 2 0 1 1 3-1 0 0-2-2 2-2h5l-6-2c12 4 3-4 6-3h3c3 1 2 0 3 3s0 3 1 0S68-4 76 1c0 0-5-2-7 6 0 0-2 3 0 3s3-4 3-1-4 3-1 2 0 3 6 2 19-4 27-2 20 1 25 3 6-1 8 1 7 3 8 3c31 2 32 5 54 27 1 2 6 6 8 11s7 16 6 23v8c1 4 11 15 13 28 3 17-3 74-2 83Z" fill="currentColor"></path>
    <path d="M37 197c6-12 41-9 52-7 10 2 17 3 15-1-3-6-5-9-13-11-11-2-46-11-53 5-3 8-5 18-1 14Zm175 0c-16-20-68 3-63-9 2-6 4-8 12-10l25-4c12-1 21 2 24 10 4 8 5 18 2 13ZM82 214a9 9 0 0 0 1-10H68a9 9 0 0 0 2 11 23 23 0 0 0 12-1Z" fill="currentColor"></path>
    <path d="M78 209c0 3-5 3-5 0s5-4 5 0Z" fill="currentColor"></path>
    <path d="M76 208a6 6 0 0 1 5 0l-2-3a6 6 0 0 0-4 2s1 1 1 1Z" fill="#fff" opacity=".3"></path>
    <path d="M87 213a49 49 0 0 1 6 0c10 1 5-2 0-5l-7-4c-4-3-16-1-21 0-3 0-6 2-8 3l-3 3 9 3c3 1 1 1-1-1a21 21 0 0 1-3-2c0-1-1-1 1-2l7-3 12-1c3-1 11 4 13 6 1 1-2 2-3 2l-2 1Z" fill="currentColor"></path>
    <path d="M50 205c4-7 18-8 25-8 7-1 16 1 19 8-6-3-12-1-18 0a124 124 0 0 1-15 0H50Zm129 10a9 9 0 0 0 1-12h-13a9 9 0 0 0-1 11c3 0 9 2 13 1Z" fill="currentColor"></path>
    <path d="M176 209c0 3-5 3-5 0s5-4 5 0Z" fill="currentColor"></path>
    <path d="M174 209a6 6 0 0 1 5-1l-2-3a6 6 0 0 0-4 2s1 1 1 2Z" fill="#fff" opacity=".3"></path>
    <path d="M162 213h-6c-4 0-7 0-4-2l6-4c7-6 17-5 25-4 4 1 8 3 11 6 2 2 4 3 2 3l-9 2c-4 1 0-1 3-2s2-1 0-2c-3-5-16-7-21-6-4 0-8 3-11 5l-1 2 2 1 3 1Z" fill="currentColor"></path>
    <path d="M199 207h-6l-5-1-27-2a18 18 0 0 0-6 0c2-3 7-5 11-6a44 44 0 0 1 23 2 25 25 0 0 1 8 5 6 6 0 0 1 2 2Z" fill="currentColor"></path>
    <path d="M201 332c-5 0-20 3-21-4v-21c-2-21-14-22-32-26-6-1-15 4-22 3-11 0-17-3-28-1-15 3-26 4-30 20l-3 8a47 47 0 0 0-2 10l-2 6c-3 6-3 8-10 7a24 24 0 0 1-10-2c15 22 29 29 49 43 45 26 77-4 111-43Zm-50 25-6-4-7-4c-2-2-3-3-1-4 3-1 3-3 6-5 1 0 2-1 2-3s0-3-4-2c-7 3-14 5-23 4-9 1-17-7-17-3 0 2-1 1 2 3l2 3c1 1 4 2 4 4s2 1-1 3l-8 7c-3 3-6 5-11 2s-4-5-6-10a177 177 0 0 0-8-21c0-6 1-12 4-15l3-6 2-1 6-4a34 34 0 0 1 6-1l4-1h3l8-1 10 2h6c2 1 2-2 4-1l5 1h2c1 1 1 0 2-1h12a2 2 0 0 0 2 0h7l1 1c4 2 3-1 7 5l2 11a47 47 0 0 1-1 11l-5 14c-1 4 0 8-4 12s-5 7-10 4Z" fill="currentColor" opacity=".6"></path>
    <path d="M94 261c-2 4-4 20 7 19 9-1 12 11 22 11 13 2 13-12 22-10 5 1 14-5 7-21" fill="#fff"></path>
    <path d="M94 261c0 4 1 13 5 14a10 10 0 0 0 2-1h2a17 17 0 0 1 8 1l10 7a8 8 0 0 0 3 1c2 0 3 0 5-2a56 56 0 0 1 6-5 16 16 0 0 1 5-2 15 15 0 0 1 7 0v1h1a4 4 0 0 0 1-1 8 8 0 0 0 2-3l1-11c4 5 8 12 6 18s-7 10-14 9v1c-6 7-12 12-22 11h1a19 19 0 0 1-10-3c-4-2-6-6-9-8l-2-1a13 13 0 0 1-13-13c0-5 2-10 5-13Zm30 45-11-3c-2 0-8 0-11 2a138 138 0 0 1-16 4c-3 0-2 0 0 2 7 5 13 16 22 21 9 4 20 7 34-2 11-7 15-18 20-24 1-1 1-1-1-1a94 94 0 0 1-13 0c-4 0-12-4-24 1Z" fill="currentColor"></path>
    <path d="M102 313c9 5 25 6 34 1a63 63 0 0 1 9-4 18 18 0 0 0 3-1c-7-2-17 1-24 2 0 0-31-4-22 2Z" fill="#fff"></path>
    <path d="m156 307-19 1-11 2h-25a39 39 0 0 1-15-1l4 2c11 1 18 7 30 7 9 1 18-3 25-7l11-3 5-2-5 1Zm-10 2a10 10 0 0 1-2 0l-1 2-4 1-2 1-1 1c-1 1-12 4-13 1l-1 1c-2 1-12 0-13-1a3 3 0 0 1-2-2h-2l-4-2c5-2 15 0 22 0 10 0 15-3 22-3 1 0 2 0 1 1Z" fill="currentColor"></path>
</svg>
